packages/flat-components/src/components/DeviceTestPage/icons/camera-disabled.svg

<?xml version="1.0" encoding="UTF-8"?>
<svg width="120px" height="120px" viewBox="0 0 120 120" version="1.1" xmlns="http://www.w3.org/2000/svg" xmlns:xlink="http://www.w3.org/1999/xlink">
    <title>矩形备份 21</title>
    <g id="设备检测Web" stroke="none" stroke-width="1" fill="none" fill-rule="evenodd">
        <g id="进入房间前检测（从房间列表或邀请链接）" transform="translate(-468.000000, -302.000000)" fill="#7A7B7C" fill-rule="nonzero">
            <g id="编组-3" transform="translate(332.000000, 101.000000)">
                <g id="编组" transform="translate(16.000000, 72.000000)">
                    <g id="编组-7" transform="translate(0.000000, 81.000000)">
                        <g id="编组" transform="translate(120.000000, 48.000000)">
                            <path d="M86.5617376,93.047828 C87.6398925,93.9103518 87.8146959,95.4835828 86.952172,96.5617376 C86.0896482,97.6398925 84.5164172,97.8146959 83.4382624,96.952172 C69.7354315,85.9899073 50.2645685,85.9899073 36.5617376,96.952172 C35.4835828,97.8146959 33.9103518,97.6398925 33.047828,96.5617376 C32.1853041,95.4835828 32.3601075,93.9103518 33.4382624,93.047828 C48.9671865,80.6246887 71.0328135,80.6246887 86.5617376,93.047828 Z M91.767767,28.232233 C92.6355987,29.1000648 92.7320245,30.4471868 92.0570442,31.4215275 L91.767767,31.767767 L85.0022299,38.5324259 L85.0022299,38.5324259 L81.1711433,42.3640015 L81.171,42.363 L72.4538555,51.0816093 C72.4538271,51.0819415 72.4537986,51.0822737 72.4537701,51.082606 L61.082606,62.4537701 L61.081,62.453 L52.3639945,71.1711408 C52.3643297,71.1712617 52.364665,71.1713827 52.3650002,71.1715036 L48.5334223,75.0026876 L48.532,75.002 L31.767767,91.767767 C30.7914562,92.7440777 29.2085438,92.7440777 28.232233,91.767767 C27.3644013,90.8999352 27.2679755,89.5528132 27.9429558,88.5784725 L28.232233,88.232233 L88.232233,28.232233 C89.2085438,27.2559223 90.7914562,27.2559223 91.767767,28.232233 Z M86.7998641,43.8070747 C87.2579509,45.7975085 87.5,47.8704875 87.5,50 C87.5,65.1878306 75.1878306,77.5 60,77.5 C57.8704875,77.5 55.7975085,77.2579509 53.8070747,76.7998641 L58.1795963,72.4274243 C58.7800577,72.4754994 59.3871676,72.5 60,72.5 C72.4264069,72.5 82.5,62.4264069 82.5,50 C82.5,49.3871676 82.4754994,48.7800577 82.4274243,48.1795963 L86.7998641,43.8070747 Z M60,22.5 C67.4395472,22.5 74.18911,25.4541742 79.1396067,30.2534407 L75.6041169,33.7900438 C71.5588417,29.8950346 66.059116,27.5 60,27.5 C47.5735931,27.5 37.5,37.5735931 37.5,50 C37.5,56.059116 39.8950346,61.5588417 43.7900438,65.6041169 L40.2534407,69.1396067 C35.4541742,64.18911 32.5,57.4395472 32.5,50 C32.5,34.8121694 44.8121694,22.5 60,22.5 Z M60,37.5 C63.2977202,37.5 66.2971793,38.7770073 68.5308459,40.8634903 L64.99103,44.4017183 C63.6652168,43.2188854 61.9165607,42.5 60,42.5 C55.8578644,42.5 52.5,45.8578644 52.5,50 C52.5,51.9165607 53.2188854,53.6652168 54.4017183,54.99103 L50.8634903,58.5308459 C48.7770073,56.2971793 47.5,53.2977202 47.5,50 C47.5,43.0964406 53.0964406,37.5 60,37.5 Z" id="形状结合"></path>
                        </g>
                    </g>
                </g>
            </g>
        </g>
    </g>
</svg>

<svg width="120" height="120" xmlns="http://www.w3.org/2000/svg"><path d="M86.562 93.048a2.5 2.5 0 1 1-3.124 3.904c-13.703-10.962-33.173-10.962-46.876 0a2.5 2.5 0 1 1-3.124-3.904c15.53-12.423 37.595-12.423 53.124 0Zm5.206-64.816a2.5 2.5 0 0 1 .289 3.19l-.29.346-6.765 6.764-3.83 3.832-.001-.001-8.717 8.719-11.371 11.372-.002-.001-8.717 8.718h.001l-3.832 3.832-.001-.001-16.764 16.766a2.5 2.5 0 0 1-3.825-3.19l.29-.346 60-60a2.5 2.5 0 0 1 3.535 0ZM86.8 43.807c.458 1.99.7 4.063.7 6.193 0 15.188-12.312 27.5-27.5 27.5-2.13 0-4.202-.242-6.193-.7l4.373-4.373c.6.048 1.207.073 1.82.073 12.426 0 22.5-10.074 22.5-22.5 0-.613-.025-1.22-.073-1.82l4.373-4.373ZM60 22.5a27.41 27.41 0 0 1 19.14 7.753l-3.536 3.537A22.425 22.425 0 0 0 60 27.5c-12.426 0-22.5 10.074-22.5 22.5 0 6.06 2.395 11.559 6.29 15.604l-3.537 3.536A27.41 27.41 0 0 1 32.5 50c0-15.188 12.312-27.5 27.5-27.5Zm0 15c3.298 0 6.297 1.277 8.53 3.363l-3.539 3.539a7.5 7.5 0 0 0-10.59 10.59l-3.538 3.539A12.456 12.456 0 0 1 47.5 50c0-6.904 5.596-12.5 12.5-12.5Z" fill="#7A7B7C"/></svg>
